pldoc/static/images/icons/list-alt.svg

<?xml version="1.0" encoding="utf-8"?>
<!-- Generated by IcoMoon.io -->
<!DOCTYPE svg PUBLIC "-//W3C//DTD SVG 1.1//EN" "http://www.w3.org/Graphics/SVG/1.1/DTD/svg11.dtd">
<svg version="1.1" xmlns="http://www.w3.org/2000/svg" xmlns:xlink="http://www.w3.org/1999/xlink" width="14" height="14" viewBox="0 0 14 14">
<path fill="#444444" d="M3 9.25v0.5q0 0.102-0.074 0.176t-0.176 0.074h-0.5q-0.102 0-0.176-0.074t-0.074-0.176v-0.5q0-0.102 0.074-0.176t0.176-0.074h0.5q0.102 0 0.176 0.074t0.074 0.176zM3 7.25v0.5q0 0.102-0.074 0.176t-0.176 0.074h-0.5q-0.102 0-0.176-0.074t-0.074-0.176v-0.5q0-0.102 0.074-0.176t0.176-0.074h0.5q0.102 0 0.176 0.074t0.074 0.176zM3 5.25v0.5q0 0.102-0.074 0.176t-0.176 0.074h-0.5q-0.102 0-0.176-0.074t-0.074-0.176v-0.5q0-0.102 0.074-0.176t0.176-0.074h0.5q0.102 0 0.176 0.074t0.074 0.176zM12 9.25v0.5q0 0.102-0.074 0.176t-0.176 0.074h-7.5q-0.102 0-0.176-0.074t-0.074-0.176v-0.5q0-0.102 0.074-0.176t0.176-0.074h7.5q0.102 0 0.176 0.074t0.074 0.176zM12 7.25v0.5q0 0.102-0.074 0.176t-0.176 0.074h-7.5q-0.102 0-0.176-0.074t-0.074-0.176v-0.5q0-0.102 0.074-0.176t0.176-0.074h7.5q0.102 0 0.176 0.074t0.074 0.176zM12 5.25v0.5q0 0.102-0.074 0.176t-0.176 0.074h-7.5q-0.102 0-0.176-0.074t-0.074-0.176v-0.5q0-0.102 0.074-0.176t0.176-0.074h7.5q0.102 0 0.176 0.074t0.074 0.176zM13 10.75v-6.5q0-0.102-0.074-0.176t-0.176-0.074h-11.5q-0.102 0-0.176 0.074t-0.074 0.176v6.5q0 0.102 0.074 0.176t0.176 0.074h11.5q0.102 0 0.176-0.074t0.074-0.176zM14 2.25v8.5q0 0.516-0.367 0.883t-0.883 0.367h-11.5q-0.516 0-0.883-0.367t-0.367-0.883v-8.5q0-0.516 0.367-0.883t0.883-0.367h11.5q0.516 0 0.883 0.367t0.367 0.883z"></path>
</svg>

<svg xmlns="http://www.w3.org/2000/svg" width="14" height="14" viewBox="0 0 14 14"><path fill="#444" d="M3 9.25v.5q0 .102-.074.176T2.75 10h-.5q-.102 0-.176-.074T2 9.75v-.5q0-.102.074-.176T2.25 9h.5q.102 0 .176.074T3 9.25zm0-2v.5q0 .102-.074.176T2.75 8h-.5q-.102 0-.176-.074T2 7.75v-.5q0-.102.074-.176T2.25 7h.5q.102 0 .176.074T3 7.25zm0-2v.5q0 .102-.074.176T2.75 6h-.5q-.102 0-.176-.074T2 5.75v-.5q0-.102.074-.176T2.25 5h.5q.102 0 .176.074T3 5.25zm9 4v.5q0 .102-.074.176T11.75 10h-7.5q-.102 0-.176-.074T4 9.75v-.5q0-.102.074-.176T4.25 9h7.5q.102 0 .176.074T12 9.25zm0-2v.5q0 .102-.074.176T11.75 8h-7.5q-.102 0-.176-.074T4 7.75v-.5q0-.102.074-.176T4.25 7h7.5q.102 0 .176.074T12 7.25zm0-2v.5q0 .102-.074.176T11.75 6h-7.5q-.102 0-.176-.074T4 5.75v-.5q0-.102.074-.176T4.25 5h7.5q.102 0 .176.074T12 5.25zm1 5.5v-6.5q0-.102-.074-.176T12.75 4H1.25q-.102 0-.176.074T1 4.25v6.5q0 .102.074.176T1.25 11h11.5q.102 0 .176-.074T13 10.75zm1-8.5v8.5q0 .516-.367.883T12.75 12H1.25q-.516 0-.883-.367T0 10.75v-8.5q0-.516.367-.883T1.25 1h11.5q.516 0 .883.367T14 2.25z"/></svg>
